svg/furkot/freepik/hotel.svg

<svg viewBox="0 0 512 512" xmlns="http://www.w3.org/2000/svg"><path d="m56.326 439.16v74.7h-39.145v-273.44c0-10.804 8.762-19.664 19.553-19.664 10.94 0 19.567 8.86 19.567 19.664v161.688h441.389v111.752h-39.469v-74.7zm60.313-119.944c19.547 0 35.386-15.84 35.386-35.51 0-19.514-15.839-35.354-35.386-35.354-19.67 0-35.51 15.84-35.51 35.354-.032 19.67 15.808 35.51 35.51 35.51zm381.654 53.494-.136-48.795c-.137-15.503-13.15-26.177-28.258-28.057l-278.625-27.713c-.583-.136-1.056-.401-1.542-.401-9.586 0-17.421 7.868-17.421 17.388v52.619h-72.892c-9.728 0-17.538 7.888-17.538 17.519 0 9.663 7.803 17.447 17.538 17.447h398.874zm17.181-242.85-257.4-127.916-.104-.337-.233.136-.24-.136-.091.337-257.406 127.916 21.446 43.157 236.297-117.462 236.292 117.462z"/></svg>

<svg xmlns="http://www.w3.org/2000/svg" viewBox="0 0 512 512"><path d="M56.326 439.16V513.86H17.181V240.42C17.181 229.616 25.943 220.756 36.734 220.756L36.734 220.756C47.674 220.756 56.301 229.616 56.301 240.42V402.108H497.69V513.86H458.221V439.16H56.326ZM116.639 319.216C136.186 319.216 152.025 303.376 152.025 283.706 152.025 264.192 136.186 248.352 116.639 248.352 96.969 248.352 81.129 264.192 81.129 283.706 81.097 303.376 96.937 319.216 116.639 319.216ZM498.293 372.71L498.157 323.915C498.02 308.412 485.007 297.738 469.899 295.858L191.274 268.145C190.691 268.009 190.218 267.744 189.732 267.744 180.146 267.744 172.311 275.612 172.311 285.132V337.751H99.419C89.691 337.751 81.881 345.639 81.881 355.27 81.881 364.933 89.684 372.717 99.419 372.717H498.293ZM515.474 129.86L258.074 1.944 257.97 1.607 257.737 1.743 257.497 1.607 257.406 1.944 0 129.86 21.446 173.017 257.743 55.555 494.035 173.017 515.474 129.86Z"/></svg>
